X: 20394
T: OUR FRIENDS IN CASTLEWEEROCK
C: Copyright.--J. M.
Q: "With spirit."
%R: reel
B: W. Hamilton "Universal Tune-Book" Vol. 2 Glasgow 1846 p.39 #4
S: http://s3-eu-west-1.amazonaws.com/itma.dl.printmaterial/book_pdfs/hamiltonvol2web.pdf
Z: 2016 John Chambers <jc:trillian.mit.edu>
M: C|
L: 1/8
K: D
% - - - - - - - - - - - - - - - - - - - - - - - - -
A |\
d>cde gfed | c>dcB ABcA |\
d>cde gfeg | f<agf f(eef) |\
g>feg fdce | dcdB ABAF |\
G>ABc defg | fedc dDD :|
|: A |\
AFGE FGAB | A=cBA GFGE |\
FDGE AFBd | cAB^G A>BAF |\
f>edc Bgfe | dFGB AFDF |\
GEcA Bdeg | f>edc dDD :|
% - - - - - - - - - - - - - - - - - - - - - - - - -

%%sep 1 1 500
%%sep 1 1 500

